T: Cliffs, The
M: 4/4
L: 1/8
K: Dmaj
D>FA>F E>GB>G | F>Ad>A f>dA>F | G>Bd>c B>eg>f | (3efe (3dcB (3ABA (3GFE |D>FA>F E>GB>G | F>Ad>e f>dA>F | G>Bd>c B>ge>c | d2 d2 d2 :|e>A 3(B/A/^G/ A f>A (3B/A/^G/ A | g>Af>A e>A (3B/A/^G/ A | g>Af>A e>Ad>f | (3efe (3dcB (3ABA (3GFE |D>FA>F E>GB>G | F>Ad>e f>dA>F | G>Bd>c B>ge>c | d2 d2 d2 :|
